icon/fa/virus-covid-slash.svg

<svg xmlns="http://www.w3.org/2000/svg" viewBox="0 0 640 512"><!--! Font Awesome Free 6.1.2 by @fontawesome - https://fontawesome.com License - https://fontawesome.com/license/free (Icons: CC BY 4.0, Fonts: SIL OFL 1.1, Code: MIT License) Copyright 2022 Fonticons, Inc.--><path d="m134.1 79.83 33.2-33.13c9.3-9.37 24.5-9.37 33.9 0 9.4 9.37 9.4 24.57 0 33.94l-11.3 11.31 23.8 23.75c23.5-17.82 51.6-29.9 81.4-34.08V48h-16c-12.4 0-24-10.74-24-24 0-13.25 11.6-24 24-24H360c13.3 0 24 10.75 24 24 0 13.26-10.7 24-24 24h-16v33.62c30.7 4.18 58.8 16.26 82.3 34.08l23.8-23.75-11.3-11.31c-9.4-9.38-9.4-24.57 0-33.94 9.4-9.38 24.6-9.38 33.9 0l56.6 56.6c9.4 9.3 9.4 24.5 0 33.9-9.4 9.4-24.6 9.4-33.9 0L484 125.9l-23.7 23.8c17.8 23.5 29.9 51.6 34.1 82.3H528v-16c0-13.3 10.7-24 24-24s24 10.7 24 24v80c0 13.3-10.7 24-24 24s-24-10.7-24-24v-16h-33.6c-3.2 23.3-11 45.2-22.3 64.7l158.7 124.4c10.4 8.2 12.3 23.3 4.1 33.7-8.2 10.4-23.3 12.3-33.7 4.1L9.196 42.89C-1.236 34.71-3.065 19.63 5.112 9.196 13.29-1.236 28.37-3.065 38.81 5.112L134.1 79.83zm15.1 133.67 252.1 198.7c-17.6 9.1-36.9 15.4-57.3 18.2V464h16c13.3 0 24 10.7 24 24s-10.7 24-24 24h-80.9c-12.4 0-24-10.7-24-24s11.6-24 24-24h16v-33.6c-29.8-4.2-57.9-16.3-81.4-34.1l-23.8 23.8 11.3 11.3c9.4 9.3 9.4 24.5 0 33.9-9.4 9.4-24.6 9.4-33.9 0l-56.6-56.6c-9.4-9.3-9.4-24.5 0-33.9 9.4-9.4 24.6-9.4 33.9 0l10.5 11.3 24.6-23.8c-17.8-23.5-29.9-51.6-34.1-82.3h-34.5v16c0 13.3-9.8 24-24 24-12.36 0-24-10.7-24-24v-80c0-13.3 11.64-24 24-24 14.2 0 24 10.7 24 24v16h34.5c.9-6.3 2.1-12.4 3.6-18.5z"/></svg>

<svg xmlns="http://www.w3.org/2000/svg" viewBox="0 0 640 512" height="1em" width="1em">
<!--! Font Awesome Free 6.1.2 by @fontawesome - https://fontawesome.com License - https://fontawesome.com/license/free (Icons: CC BY 4.0, Fonts: SIL OFL 1.1, Code: MIT License) Copyright 2022 Fonticons, Inc.-->
  <path d="M134.1 79.83L167.3 46.7C176.6 37.33 191.8 37.33 201.2 46.7C210.6 56.07 210.6 71.27 201.2 80.64L189.9 91.95L213.7 115.7C237.2 97.88 265.3 85.8 295.1 81.62V48H279.1C266.7 48 255.1 37.26 255.1 24C255.1 10.75 266.7 .0003 279.1 .0003H360C373.3 .0003 384 10.75 384 24C384 37.26 373.3 48 360 48H344V81.62C374.7 85.8 402.8 97.88 426.3 115.7L450.1 91.95L438.8 80.64C429.4 71.26 429.4 56.07 438.8 46.7C448.2 37.32 463.4 37.32 472.7 46.7L529.3 103.3C538.7 112.6 538.7 127.8 529.3 137.2C519.9 146.6 504.7 146.6 495.4 137.2L484 125.9L460.3 149.7C478.1 173.2 490.2 201.3 494.4 232H528V216C528 202.7 538.7 192 552 192C565.3 192 576 202.7 576 216V296C576 309.3 565.3 320 552 320C538.7 320 528 309.3 528 296V280H494.4C491.2 303.3 483.4 325.2 472.1 344.7L630.8 469.1C641.2 477.3 643.1 492.4 634.9 502.8C626.7 513.2 611.6 515.1 601.2 506.9L9.196 42.89C-1.236 34.71-3.065 19.63 5.112 9.196C13.29-1.236 28.37-3.065 38.81 5.112L134.1 79.83zM149.2 213.5L401.3 412.2C383.7 421.3 364.4 427.6 344 430.4V464H360C373.3 464 384 474.7 384 488C384 501.3 373.3 512 360 512H279.1C266.7 512 255.1 501.3 255.1 488C255.1 474.7 266.7 464 279.1 464H295.1V430.4C265.3 426.2 237.2 414.1 213.7 396.3L189.9 420.1L201.2 431.4C210.6 440.7 210.6 455.9 201.2 465.3C191.8 474.7 176.6 474.7 167.3 465.3L110.7 408.7C101.3 399.4 101.3 384.2 110.7 374.8C120.1 365.4 135.3 365.4 144.6 374.8L155.1 386.1L179.7 362.3C161.9 338.8 149.8 310.7 145.6 280H111.1V296C111.1 309.3 101.3 320 87.1 320C74.74 320 63.1 309.3 63.1 296V216C63.1 202.7 74.74 192 87.1 192C101.3 192 111.1 202.7 111.1 216V232H145.6C146.5 225.7 147.7 219.6 149.2 213.5L149.2 213.5z"/>
</svg>
